X:63
T:Westphalia
M:3/4
L:1/8
R:Waltz
Z:SG
K:G
DEF|: "G"G4A2 | "GM7"B4e2 | "Em"d6- | "Bm"d3DEF|"G"G4A2 | "E"B4c2 | 
"Am"A4-AB | "D"A4G2 | F4G2 | "Am"A4g2 |"D"f4-fg | f4e2 | 
d3^cde |1 "D7"d2^c2=c2 | "G"B4-Bc | "D"B3DEF :|2 d2F2A2 | "G"G6 | G2B2d2 ||
|: "G"g6 | "GM7"f6 | "Em"e2f2g2 | "Bm"B6 | "G"(3BcB A2G2 | "G"(3BcB A2G2 | 
"Am"c3Bcd | "D"c6 | "Am"e6 | "G#dim"e6 |"C"e2f2g2 | "D"f4e2 | 
d3^cde |1 "D7"d2^c2=c2 | "G"B4-Bc | B4d2 :|2"D" d2F2A2 | "G"G6 | G3 |]
